ocio_configuration/LUTs/sRGB_CCTF_to_Linear_variant.spi1d
Version 1
From -0.1250000000 4.8750000000
Length 1024
Components 1
{
 -0.0096749226
 -0.0092966265
 -0.0089183304
 -0.0085400343
 -0.0081617382
 -0.0077834421
 -0.0074051460
 -0.0070268499
 -0.0066485538
 -0.0062702578
 -0.0058919617
 -0.0055136656
 -0.0051353695
 -0.0047570734
 -0.0043787773
 -0.0040004812
 -0.0036221851
 -0.0032438890
 -0.0028655929
 -0.0024872968
 -0.0021090007
 -0.0017307046
 -0.0013524085
 -0.0009741124
 -0.0005958163
 -0.0002175203
 0.0001607758
 0.0005390719
 0.0009173680
 0.0012956641
 0.0016739602
 0.0020522563
 0.0024305524
 0.0028088485
 0.0031884153
 0.0035912121
 0.0040222281
 0.0044820014
 0.0049710557
 0.0054899007
 0.0060390337
 0.0066189398
 0.0072300929
 0.0078729565
 0.0085479840
 0.0092556194
 0.0099962981
 0.0107704466
 0.0115784837
 0.0124208206
 0.0132978610
 0.0142100019
 0.0151576337
 0.0161411401
 0.0171608993
 0.0182172831
 0.0193106581
 0.0204413855
 0.0216098211
 0.0228163160
 0.0240612164
 0.0253448638
 0.0266675954
 0.0280297439
 0.0294316381
 0.0308736025
 0.0323559578
 0.0338790211
 0.0354431056
 0.0370485211
 0.0386955737
 0.0403845666
 0.0421157994
 0.0438895687
 0.0457061679
 0.0475658875
 0.0494690152
 0.0514158356
 0.0534066309
 0.0554416802
 0.0575212603
 0.0596456453
 0.0618151069
 0.0640299144
 0.0662903344
 0.0685966316
 0.0709490681
 0.0733479041
 0.0757933974
 0.0782858037
 0.0808253766
 0.0834123679
 0.0860470272
 0.0887296021
 0.0914603386
 0.0942394804
 0.0970672697
 0.0999439469
 0.1028697504
 0.1058449171
 0.1088696821
 0.1119442788
 0.1150689392
 0.1182438935
 0.1214693703
 0.1247455968
 0.1280727985
 0.1314511996
 0.1348810228
 0.1383624893
 0.1418958189
 0.1454812300
 0.1491189398
 0.1528091638
 0.1565521165
 0.1603480111
 0.1641970592
 0.1680994715
 0.1720554574
 0.1760652248
 0.1801289807
 0.1842469309
 0.1884192798
 0.1926462308
 0.1969279864
 0.2012647475
 0.2056567143
 0.2101040857
 0.2146070597
 0.2191658332
 0.2237806019
 0.2284515606
 0.2331789033
 0.2379628225
 0.2428035103
 0.2477011574
 0.2526559538
 0.2576680884
 0.2627377492
 0.2678651234
 0.2730503971
 0.2782937557
 0.2835953836
 0.2889554643
 0.2943741806
 0.2998517143
 0.3053882464
 0.3109839572
 0.3166390258
 0.3223536310
 0.3281279505
 0.3339621611
 0.3398564392
 0.3458109601
 0.3518258984
 0.3579014281
 0.3640377223
 0.3702349533
 0.3764932930
 0.3828129122
 0.3891939812
 0.3956366696
 0.4021411461
 0.4087075790
 0.4153361357
 0.4220269831
 0.4287802871
 0.4355962135
 0.4424749268
 0.4494165914
 0.4564213707
 0.4634894277
 0.4706209247
 0.4778160232
 0.4850748844
 0.4923976686
 0.4997845357
 0.5072356449
 0.5147511549
 0.5223312237
 0.5299760089
 0.5376856672
 0.5454603552
 0.5533002285
 0.5612054423
 0.5691761514
 0.5772125099
 0.5853146713
 0.5934827888
 0.6017170147
 0.6100175012
 0.6183843997
 0.6268178612
 0.6353180360
 0.6438850742
 0.6525191252
 0.6612203378
 0.6699888606
 0.6788248415
 0.6877284280
 0.6966997670
 0.7057390051
 0.7148462882
 0.7240217621
 0.7332655717
 0.7425778618
 0.7519587764
 0.7614084594
 0.7709270540
 0.7805147031
 0.7901715491
 0.7998977338
 0.8096933989
 0.8195586855
 0.8294937341
 0.8394986851
 0.8495736782
 0.8597188529
 0.8699343482
 0.8802203026
 0.8905768543
 0.9010041411
 0.9115023003
 0.9220714689
 0.9327117835
 0.9434233803
 0.9542063949
 0.9650609630
 0.9759872194
 0.9869852988
 0.9980553355
 1.0091974633
 1.0204118159
 1.0316985262
 1.0430577272
 1.0544895511
 1.0659941302
 1.0775715960
 1.0892220799
 1.1009457130
 1.1127426258
 1.1246129486
 1.1365568113
 1.1485743437
 1.1606656748
 1.1728309338
 1.1850702490
 1.1973837488
 1.2097715611
 1.2222338135
 1.2347706332
 1.2473821472
 1.2600684821
 1.2728297642
 1.2856661195
 1.2985776735
 1.3115645517
 1.3246268791
 1.3377647804
 1.3509783800
 1.3642678020
 1.3776331703
 1.3910746083
 1.4045922393
 1.4181861860
 1.4318565713
 1.4456035172
 1.4594271460
 1.4733275793
 1.4873049385
 1.5013593448
 1.5154909190
 1.5296997819
 1.5439860536
 1.5583498542
 1.5727913034
 1.5873105207
 1.6019076253
 1.6165827361
 1.6313359718
 1.6461674507
 1.6610772910
 1.6760656105
 1.6911325268
 1.7062781572
 1.7215026188
 1.7368060283
 1.7521885024
 1.7676501572
 1.7831911088
 1.7988114730
 1.8145113653
 1.8302909010
 1.8461501950
 1.8620893623
 1.8781085171
 1.8942077740
 1.9103872468
 1.9266470494
 1.9429872953
 1.9594080979
 1.9759095701
 1.9924918249
 2.0091549749
 2.0258991323
 2.0427244094
 2.0596309180
 2.0766187698
 2.0936880762
 2.1108389485
 2.1280714976
 2.1453858343
 2.1627820690
 2.1802603123
 2.1978206740
 2.2154632641
 2.2331881922
 2.2509955678
 2.2688855000
 2.2868580979
 2.3049134702
 2.3230517256
 2.3412729722
 2.3595773184
 2.3779648719
 2.3964357406
 2.4149900320
 2.4336278533
 2.4523493117
 2.4711545140
 2.4900435669
 2.5090165769
 2.5280736504
 2.5472148933
 2.5664404116
 2.5857503109
 2.6051446967
 2.6246236744
 2.6441873490
 2.6638358253
 2.6835692082
 2.7033876020
 2.7232911112
 2.7432798398
 2.7633538918
 2.7835133709
 2.8037583807
 2.8240890246
 2.8445054056
 2.8650076269
 2.8855957912
 2.9062700012
 2.9270303592
 2.9478769676
 2.9688099285
 2.9898293437
 3.0109353149
 3.0321279437
 3.0534073315
 3.0747735794
 3.0962267884
 3.1177670594
 3.1393944930
 3.1611091898
 3.1829112499
 3.2048007736
 3.2267778609
 3.2488426114
 3.2709951249
 3.2932355007
 3.3155638383
 3.3379802366
 3.3604847947
 3.3830776113
 3.4057587850
 3.4285284144
 3.4513865977
 3.4743334329
 3.4973690182
 3.5204934512
 3.5437068297
 3.5670092511
 3.5904008127
 3.6138816117
 3.6374517450
 3.6611113097
 3.6848604022
 3.7086991192
 3.7326275571
 3.7566458120
 3.7807539800
 3.8049521570
 3.8292404389
 3.8536189211
 3.8780876993
 3.9026468685
 3.9272965241
 3.9520367610
 3.9768676741
 4.0017893581
 4.0268019075
 4.0519054168
 4.0770999802
 4.1023856918
 4.1277626457
 4.1532309355
 4.1787906551
 4.2044418980
 4.2301847575
 4.2560193269
 4.2819456993
 4.3079639678
 4.3340742250
 4.3602765638
 4.3865710766
 4.4129578559
 4.4394369939
 4.4660085828
 4.4926727146
 4.5194294811
 4.5462789741
 4.5732212851
 4.6002565056
 4.6273847269
 4.6546060402
 4.6819205365
 4.7093283068
 4.7368294418
 4.7644240323
 4.7921121686
 4.8198939412
 4.8477694403
 4.8757387562
 4.9038019787
 4.9319591977
 4.9602105031
 4.9885559843
 5.0169957309
 5.0455298322
 5.0741583775
 5.1028814558
 5.1316991562
 5.1606115675
 5.1896187784
 5.2187208775
 5.2479179533
 5.2772100941
 5.3065973883
 5.3360799238
 5.3656577887
 5.3953310709
 5.4250998580
 5.4549642378
 5.4849242977
 5.5149801251
 5.5451318072
 5.5753794313
 5.6057230843
 5.6361628531
 5.6666988246
 5.6973310854
 5.7280597221
 5.7588848211
 5.7898064687
 5.8208247511
 5.8519397545
 5.8831515648
 5.9144602678
 5.9458659494
 5.9773686952
 6.0089685906
 6.0406657211
 6.0724601721
 6.1043520286
 6.1363413757
 6.1684282985
 6.2006128818
 6.2328952102
 6.2652753685
 6.2977534412
 6.3303295127
 6.3630036672
 6.3957759890
 6.4286465622
 6.4616154707
 6.4946827985
 6.5278486292
 6.5611130466
 6.5944761341
 6.6279379753
 6.6614986535
 6.6951582519
 6.7289168537
 6.7627745418
 6.7967313992
 6.8307875087
 6.8649429531
 6.8991978148
 6.9335521766
 6.9680061206
 7.0025597293
 7.0372130849
 7.0719662694
 7.1068193649
 7.1417724532
 7.1768256162
 7.2119789355
 7.2472324928
 7.2825863695
 7.3180406470
 7.3535954067
 7.3892507297
 7.4250066971
 7.4608633900
 7.4968208893
 7.5328792757
 7.5690386300
 7.6052990328
 7.6416605646
 7.6781233058
 7.7146873368
 7.7513527379
 7.7881195890
 7.8249879704
 7.8619579618
 7.8990296433
 7.9362030945
 7.9734783951
 8.0108556247
 8.0483348628
 8.0859161887
 8.1235996818
 8.1613854212
 8.1992734861
 8.2372639554
 8.2753569082
 8.3135524232
 8.3518505792
 8.3902514549
 8.4287551288
 8.4673616793
 8.5060711850
 8.5448837240
 8.5837993746
 8.6228182148
 8.6619403228
 8.7011657765
 8.7404946537
 8.7799270321
 8.8194629896
 8.8591026036
 8.8988459516
 8.9386931111
 8.9786441594
 9.0186991738
 9.0588582313
 9.0991214092
 9.1394887843
 9.1799604335
 9.2205364338
 9.2612168618
 9.3020017941
 9.3428913073
 9.3838854780
 9.4249843824
 9.4661880970
 9.5074966979
 9.5489102613
 9.5904288632
 9.6320525797
 9.6737814865
 9.7156156597
 9.7575551748
 9.7996001075
 9.8417505334
 9.8840065280
 9.9263681667
 9.9688355249
 10.0114086777
 10.0540877004
 10.0968726680
 10.1397636555
 10.1827607379
 10.2258639900
 10.2690734866
 10.3123893024
 10.3558115120
 10.3993401899
 10.4429754106
 10.4867172484
 10.5305657777
 10.5745210727
 10.6185832075
 10.6627522563
 10.7070282929
 10.7514113913
 10.7959016254
 10.8404990688
 10.8852037954
 10.9300158787
 10.9749353922
 11.0199624094
 11.0650970037
 11.1103392484
 11.1556892167
 11.2011469818
 11.2467126167
 11.2923861946
 11.3381677882
 11.3840574706
 11.4300553144
 11.4761613924
 11.5223757772
 11.5686985414
 11.6151297576
 11.6616694980
 11.7083178352
 11.7550748413
 11.8019405885
 11.8489151491
 11.8959985950
 11.9431909982
 11.9904924308
 12.0379029645
 12.0854226711
 12.1330516223
 12.1807898897
 12.2286375450
 12.2765946596
 12.3246613050
 12.3728375525
 12.4211234733
 12.4695191388
 12.5180246201
 12.5666399881
 12.6153653141
 12.6642006688
 12.7131461233
 12.7622017482
 12.8113676143
 12.8606437923
 12.9100303529
 12.9595273664
 13.0091349034
 13.0588530344
 13.1086818295
 13.1586213592
 13.2086716935
 13.2588329026
 13.3091050567
 13.3594882256
 13.4099824794
 13.4605878878
 13.5113045207
 13.5621324479
 13.6130717389
 13.6641224635
 13.7152846910
 13.7665584911
 13.8179439331
 13.8694410864
 13.9210500203
 13.9727708039
 14.0246035064
 14.0765481969
 14.1286049445
 14.1807738180
 14.2330548864
 14.2854482186
 14.3379538832
 14.3905719491
 14.4433024848
 14.4961455589
 14.5491012399
 14.6021695964
 14.6553506966
 14.7086446090
 14.7620514018
 14.8155711431
 14.8692039012
 14.9229497442
 14.9768087400
 15.0307809566
 15.0848664620
 15.1390653239
 15.1933776101
 15.2478033885
 15.3023427265
 15.3569956918
 15.4117623520
 15.4666427745
 15.5216370268
 15.5767451761
 15.6319672899
 15.6873034353
 15.7427536795
 15.7983180896
 15.8539967327
 15.9097896758
 15.9656969859
 16.0217187298
 16.0778549743
 16.1341057862
 16.1904712323
 16.2469513791
 16.3035462933
 16.3602560414
 16.4170806898
 16.4740203050
 16.5310749534
 16.5882447013
 16.6455296148
 16.7029297602
 16.7604452037
 16.8180760112
 16.8758222489
 16.9336839827
 16.9916612784
 17.0497542020
 17.1079628191
 17.1662871957
 17.2247273973
 17.2832834896
 17.3419555381
 17.4007436083
 17.4596477658
 17.5186680759
 17.5778046040
 17.6370574153
 17.6964265751
 17.7559121486
 17.8155142009
 17.8752327970
 17.9350680021
 17.9950198811
 18.0550884988
 18.1152739201
 18.1755762099
 18.2359954329
 18.2965316537
 18.3571849371
 18.4179553476
 18.4788429497
 18.5398478080
 18.6009699868
 18.6622095506
 18.7235665636
 18.7850410901
 18.8466331943
 18.9083429405
 18.9701703927
 19.0321156150
 19.0941786713
 19.1563596257
 19.2186585420
 19.2810754841
 19.3436105158
 19.4062637009
 19.4690351030
 19.5319247857
 19.5949328128
 19.6580592476
 19.7213041538
 19.7846675947
 19.8481496338
 19.9117503343
 19.9754697597
 20.0393079730
 20.1032650375
 20.1673410163
 20.2315359726
 20.2958499692
 20.3602830694
 20.4248353359
 20.4895068316
 20.5542976195
 20.6192077622
 20.6842373226
 20.7493863633
 20.8146549469
 20.8800431361
 20.9455509933
 21.0111785811
 21.0769259619
 21.1427931981
 21.2087803521
 21.2748874861
 21.3411146625
 21.4074619433
 21.4739293907
 21.5405170670
 21.6072250340
 21.6740533538
 21.7410020884
 21.8080712997
 21.8752610496
 21.9425713998
 22.0100024122
 22.0775541484
 22.1452266701
 22.2130200390
 22.2809343166
 22.3489695645
 22.4171258442
 22.4854032170
 22.5538017445
 22.6223214879
 22.6909625085
 22.7597248676
 22.8286086264
 22.8976138460
 22.9667405876
 23.0359889123
 23.1053588810
 23.1748505547
 23.2444639944
 23.3141992609
 23.3840564152
 23.4540355179
 23.5241366298
 23.5943598117
 23.6647051242
 23.7351726278
 23.8057623833
 23.8764744510
 23.9473088915
 24.0182657652
 24.0893451325
 24.1605470537
 24.2318715891
 24.3033187990
 24.3748887437
 24.4465814832
 24.5183970776
 24.5903355872
 24.6623970718
 24.7345815915
 24.8068892063
 24.8793199759
 24.9518739604
 25.0245512195
 25.0973518129
 25.1702758004
 25.2433232418
 25.3164941965
 25.3897887243
 25.4632068847
 25.5367487371
 25.6104143411
 25.6842037561
 25.7581170415
 25.8321542566
 25.9063154607
 25.9806007130
 26.0550100729
 26.1295435994
 26.2042013516
 26.2789833888
 26.3538897698
 26.4289205538
 26.5040757996
 26.5793555662
 26.6547599125
 26.7302888972
 26.8059425793
 26.8817210174
 26.9576242703
 27.0336523966
 27.1098054549
 27.1860835039
 27.2624866021
 27.3390148080
 27.4156681800
 27.4924467766
 27.5693506561
 27.6463798769
 27.7235344974
 27.8008145756
 27.8782201700
 27.9557513386
 28.0334081396
 28.1111906311
 28.1890988711
 28.2671329177
 28.3452928288
 28.4235786624
 28.5019904763
 28.5805283285
 28.6591922768
 28.7379823788
 28.8168986924
 28.8959412753
 28.9751101851
 29.0544054794
 29.1338272159
 29.2133754520
 29.2930502452
 29.3728516531
 29.4527797330
 29.5328345424
 29.6130161385
 29.6933245787
 29.7737599202
 29.8543222203
 29.9350115362
 30.0158279250
 30.0967714438
 30.1778421497
 30.2590400998
 30.3403653510
 30.4218179603
 30.5033979846
 30.5851054808
 30.6669405057
 30.7489031162
 30.8309933691
 30.9132113209
 30.9955570286
 31.0780305486
 31.1606319376
 31.2433612523
 31.3262185491
 31.4092038845
 31.4923173151
 31.5755588972
 31.6589286872
 31.7424267416
 31.8260531166
 31.9098078684
 31.9936910534
 32.0777027278
 32.1618429477
 32.2461117693
 32.3305092486
 32.4150354417
 32.4996904047
 32.5844741935
 32.6693868641
 32.7544284724
 32.8395990743
 32.9248987256
 33.0103274821
 33.0958853996
 33.1815725339
 33.2673889405
 33.3533346753
 33.4394097938
 33.5256143516
 33.6119484043
 33.6984120074
 33.7850052163
 33.8717280866
 33.9585806735
 34.0455630326
 34.1326752191
 34.2199172884
 34.3072892957
 34.3947912962
 34.4824233452
 34.5701854978
 34.6580778092
 34.7461003344
 34.8342531286
 34.9225362466
 35.0109497436
 35.0994936745
 35.1881680941
 35.2769730575
 35.3659086194
 35.4549748346
 35.5441717580
 35.6334994442
 35.7229579481
 35.8125473242
 35.9022676272
 35.9921189118
 36.0821012325
 36.1722146439
 36.2624592004
 36.3528349565
 36.4433419667
 36.5339802854
 36.6247499670
 36.7156510658
 36.8066836360
 36.8978477321
 36.9891434081
 37.0805707184
 37.1721297171
 37.2638204583
 37.3556429961
 37.4475973846
 37.5396836779
 37.6319019299
 37.7242521947
 37.8167345261
 37.9093489781
 38.0020956045
 38.0949744592
 38.1879855960
 38.2811290686
 38.3744049309
 38.4678132364
 38.5613540390
 38.6550273922
 38.7488333496
 38.8427719648
 38.9368432915
 39.0310473830
 39.1253842928
 39.2198540745
 39.3144567814
 39.4091924669
 39.5040611844
 39.5990629872
 39.6941979285
 39.7894660617
 39.8848674399
 39.9804021164
 40.0760701443
 40.1718715768
 40.2678064669
 40.3638748676
 40.4600768322
}
# sRGB CCTF to Display Linear
