ocio_configuration/LUTs/sRGB_Linear_to_CCTF_variant.spi1d
Version 1
From -0.1250000000 4.8750000000
Length 8192
Components 1
{
 -1.6150000000
 -1.6071132951
 -1.5992265902
 -1.5913398852
 -1.5834531803
 -1.5755664754
 -1.5676797705
 -1.5597930656
 -1.5519063606
 -1.5440196557
 -1.5361329508
 -1.5282462459
 -1.5203595410
 -1.5124728360
 -1.5045861311
 -1.4966994262
 -1.4888127213
 -1.4809260164
 -1.4730393114
 -1.4651526065
 -1.4572659016
 -1.4493791967
 -1.4414924918
 -1.4336057868
 -1.4257190819
 -1.4178323770
 -1.4099456721
 -1.4020589672
 -1.3941722622
 -1.3862855573
 -1.3783988524
 -1.3705121475
 -1.3626254426
 -1.3547387376
 -1.3468520327
 -1.3389653278
 -1.3310786229
 -1.3231919180
 -1.3153052130
 -1.3074185081
 -1.2995318032
 -1.2916450983
 -1.2837583934
 -1.2758716884
 -1.2679849835
 -1.2600982786
 -1.2522115737
 -1.2443248688
 -1.2364381638
 -1.2285514589
 -1.2206647540
 -1.2127780491
 -1.2048913442
 -1.1970046392
 -1.1891179343
 -1.1812312294
 -1.1733445245
 -1.1654578196
 -1.1575711146
 -1.1496844097
 -1.1417977048
 -1.1339109999
 -1.1260242950
 -1.1181375900
 -1.1102508851
 -1.1023641802
 -1.0944774753
 -1.0865907704
 -1.0787040654
 -1.0708173605
 -1.0629306556
 -1.0550439507
 -1.0471572458
 -1.0392705408
 -1.0313838359
 -1.0234971310
 -1.0156104261
 -1.0077237212
 -0.9998370162
 -0.9919503113
 -0.9840636064
 -0.9761769015
 -0.9682901966
 -0.9604034916
 -0.9525167867
 -0.9446300818
 -0.9367433769
 -0.9288566720
 -0.9209699670
 -0.9130832621
 -0.9051965572
 -0.8973098523
 -0.8894231474
 -0.8815364424
 -0.8736497375
 -0.8657630326
 -0.8578763277
 -0.8499896228
 -0.8421029178
 -0.8342162129
 -0.8263295080
 -0.8184428031
 -0.8105560982
 -0.8026693932
 -0.7947826883
 -0.7868959834
 -0.7790092785
 -0.7711225736
 -0.7632358686
 -0.7553491637
 -0.7474624588
 -0.7395757539
 -0.7316890490
 -0.7238023440
 -0.7159156391
 -0.7080289342
 -0.7001422293
 -0.6922555244
 -0.6843688194
 -0.6764821145
 -0.6685954096
 -0.6607087047
 -0.6528219998
 -0.6449352948
 -0.6370485899
 -0.6291618850
 -0.6212751801
 -0.6133884752
 -0.6055017702
 -0.5976150653
 -0.5897283604
 -0.5818416555
 -0.5739549506
 -0.5660682456
 -0.5581815407
 -0.5502948358
 -0.5424081309
 -0.5345214260
 -0.5266347210
 -0.5187480161
 -0.5108613112
 -0.5029746063
 -0.4950879014
 -0.4872011964
 -0.4793144915
 -0.4714277866
 -0.4635410817
 -0.4556543768
 -0.4477676718
 -0.4398809669
 -0.4319942620
 -0.4241075571
 -0.4162208522
 -0.4083341472
 -0.4004474423
 -0.3925607374
 -0.3846740325
 -0.3767873276
 -0.3689006226
 -0.3610139177
 -0.3531272128
 -0.3452405079
 -0.3373538030
 -0.3294670980
 -0.3215803931
 -0.3136936882
 -0.3058069833
 -0.2979202784
 -0.2900335734
 -0.2821468685
 -0.2742601636
 -0.2663734587
 -0.2584867538
 -0.2506000488
 -0.2427133439
 -0.2348266390
 -0.2269399341
 -0.2190532292
 -0.2111665242
 -0.2032798193
 -0.1953931144
 -0.1875064095
 -0.1796197046
 -0.1717329996
 -0.1638462947
 -0.1559595898
 -0.1480728849
 -0.1401861800
 -0.1322994750
 -0.1244127701
 -0.1165260652
 -0.1086393603
 -0.1007526554
 -0.0928659504
 -0.0849792455
 -0.0770925406
 -0.0692058357
 -0.0613191308
 -0.0534324258
 -0.0455457209
 -0.0376590160
 -0.0297723111
 -0.0218856062
 -0.0139989012
 -0.0061121963
 0.0017745086
 0.0096612135
 0.0175479184
 0.0254346234
 0.0333213283
 0.0411912419
 0.0484723487
 0.0550986551
 0.0612089392
 0.0668995863
 0.0722406730
 0.0772849857
 0.0820734269
 0.0866384317
 0.0910062198
 0.0951983348
 0.0992327266
 0.1031245327
 0.1068866550
 0.1105301928
 0.1140647746
 0.1174988153
 0.1208397184
 0.1240940373
 0.1272676047
 0.1303656387
 0.1333928282
 0.1363534055
 0.1392512051
 0.1420897138
 0.1448721134
 0.1476013160
 0.1502799949
 0.1529106110
 0.1554954354
 0.1580365693
 0.1605359608
 0.1629954203
 0.1654166334
 0.1678011727
 0.1701505079
 0.1724660149
 0.1747489842
 0.1770006276
 0.1792220852
 0.1814144306
 0.1835786768
 0.1857157803
 0.1878266457
 0.1899121294
 0.1919730431
 0.1940101569
 0.1960242024
 0.1980158753
 0.1999858374
 0.2019347194
 0.2038631226
 0.2057716207
 0.2076607618
 0.2095310696
 0.2113830452
 0.2132171682
 0.2150338984
 0.2168336760
 0.2186169239
 0.2203840476
 0.2221354369
 0.2238714663
 0.2255924961
 0.2272988729
 0.2289909304
 0.2306689903
 0.2323333624
 0.2339843456
 0.2356222282
 0.2372472888
 0.2388597960
 0.2404600097
 0.2420481810
 0.2436245527
 0.2451893599
 0.2467428298
 0.2482851829
 0.2498166323
 0.2513373848
 0.2528476408
 0.2543475947
 0.2558374350
 0.2573173446
 0.2587875013
 0.2602480775
 0.2616992408
 0.2631411541
 0.2645739757
 0.2659978596
 0.2674129554
 0.2688194088
 0.2702173616
 0.2716069519
 0.2729883141
 0.2743615790
 0.2757268742
 0.2770843240
 0.2784340497
 0.2797761693
 0.2811107980
 0.2824380483
 0.2837580299
 0.2850708498
 0.2863766125
 0.2876754200
 0.2889673720
 0.2902525658
 0.2915310966
 0.2928030572
 0.2940685385
 0.2953276293
 0.2965804164
 0.2978269849
 0.2990674177
 0.3003017962
 0.3015301999
 0.3027527066
 0.3039693926
 0.3051803324
 0.3063855992
 0.3075852645
 0.3087793984
 0.3099680696
 0.3111513454
 0.3123292918
 0.3135019734
 0.3146694535
 0.3158317944
 0.3169890570
 0.3181413011
 0.3192885852
 0.3204309670
 0.3215685029
 0.3227012482
 0.3238292573
 0.3249525837
 0.3260712796
 0.3271853966
 0.3282949851
 0.3294000948
 0.3305007744
 0.3315970718
 0.3326890340
 0.3337767072
 0.3348601369
 0.3359393676
 0.3370144434
 0.3380854072
 0.3391523015
 0.3402151681
 0.3412740479
 0.3423289812
 0.3433800078
 0.3444271666
 0.3454704961
 0.3465100339
 0.3475458174
 0.3485778830
 0.3496062667
 0.3506310041
 0.3516521299
 0.3526696785
 0.3536836838
 0.3546941790
 0.3557011969
 0.3567047698
 0.3577049294
 0.3587017073
 0.3596951340
 0.3606852402
 0.3616720557
 0.3626556101
 0.3636359324
 0.3646130514
 0.3655869952
 0.3665577917
 0.3675254684
 0.3684900523
 0.3694515701
 0.3704100482
 0.3713655124
 0.3723179884
 0.3732675014
 0.3742140763
 0.3751577376
 0.3760985095
 0.3770364159
 0.3779714805
 0.3789037264
 0.3798331765
 0.3807598536
 0.3816837800
 0.3826049777
 0.3835234684
 0.3844392738
 0.3853524149
 0.3862629127
 0.3871707879
 0.3880760608
 0.3889787517
 0.3898788804
 0.3907764665
 0.3916715295
 0.3925640885
 0.3934541625
 0.3943417701
 0.3952269298
 0.3961096598
 0.3969899782
 0.3978679027
 0.3987434509
 0.3996166403
 0.4004874879
 0.4013560108
 0.4022222257
 0.4030861492
 0.4039477977
 0.4048071873
 0.4056643341
 0.4065192538
 0.4073719622
 0.4082224746
 0.4090708064
 0.4099169727
 0.4107609883
 0.4116028681
 0.4124426267
 0.4132802786
 0.4141158379
 0.4149493189
 0.4157807354
 0.4166101014
 0.4174374305
 0.4182627362
 0.4190860319
 0.4199073309
 0.4207266461
 0.4215439906
 0.4223593772
 0.4231728186
 0.4239843273
 0.4247939156
 0.4256015960
 0.4264073806
 0.4272112813
 0.4280133101
 0.4288134788
 0.4296117991
 0.4304082824
 0.4312029402
 0.4319957839
 0.4327868246
 0.4335760734
 0.4343635413
 0.4351492391
 0.4359331777
 0.4367153676
 0.4374958194
 0.4382745435
 0.4390515504
 0.4398268502
 0.4406004530
 0.4413723690
 0.4421426080
 0.4429111800
 0.4436780946
 0.4444433616
 0.4452069904
 0.4459689907
 0.4467293717
 0.4474881429
 0.4482453133
 0.4490008922
 0.4497548886
 0.4505073114
 0.4512581696
 0.4520074719
 0.4527552271
 0.4535014437
 0.4542461304
 0.4549892957
 0.4557309479
 0.4564710954
 0.4572097464
 0.4579469092
 0.4586825917
 0.4594168022
 0.4601495485
 0.4608808386
 0.4616106802
 0.4623390811
 0.4630660491
 0.4637915917
 0.4645157165
 0.4652384311
 0.4659597427
 0.4666796589
 0.4673981869
 0.4681153339
 0.4688311072
 0.4695455138
 0.4702585608
 0.4709702552
 0.4716806039
 0.4723896139
 0.4730972920
 0.4738036448
 0.4745086793
 0.4752124019
 0.4759148193
 0.4766159381
 0.4773157647
 0.4780143057
 0.4787115673
 0.4794075559
 0.4801022779
 0.4807957394
 0.4814879466
 0.4821789057
 0.4828686228
 0.4835571039
 0.4842443550
 0.4849303821
 0.4856151910
 0.4862987876
 0.4869811777
 0.4876623670
 0.4883423614
 0.4890211664
 0.4896987878
 0.4903752310
 0.4910505016
 0.4917246051
 0.4923975470
 0.4930693328
 0.4937399676
 0.4944094570
 0.4950778062
 0.4957450205
 0.4964111050
 0.4970760650
 0.4977399056
 0.4984026319
 0.4990642489
 0.4997247617
 0.5003841753
 0.5010424946
 0.5016997245
 0.5023558699
 0.5030109357
 0.5036649267
 0.5043178476
 0.5049697031
 0.5056204981
 0.5062702371
 0.5069189248
 0.5075665657
 0.5082131646
 0.5088587258
 0.5095032540
 0.5101467536
 0.5107892289
 0.5114306846
 0.5120711248
 0.5127105540
 0.5133489765
 0.5139863966
 0.5146228186
 0.5152582466
 0.5158926849
 0.5165261377
 0.5171586090
 0.5177901031
 0.5184206240
 0.5190501757
 0.5196787623
 0.5203063878
 0.5209330562
 0.5215587715
 0.5221835375
 0.5228073581
 0.5234302373
 0.5240521788
 0.5246731865
 0.5252932642
 0.5259124157
 0.5265306447
 0.5271479549
 0.5277643500
 0.5283798337
 0.5289944097
 0.5296080815
 0.5302208528
 0.5308327272
 0.5314437081
 0.5320537992
 0.5326630040
 0.5332713258
 0.5338787683
 0.5344853348
 0.5350910287
 0.5356958535
 0.5362998126
 0.5369029092
 0.5375051468
 0.5381065285
 0.5387070579
 0.5393067380
 0.5399055721
 0.5405035636
 0.5411007155
 0.5416970311
 0.5422925136
 0.5428871661
 0.5434809917
 0.5440739936
 0.5446661749
 0.5452575385
 0.5458480877
 0.5464378253
 0.5470267545
 0.5476148783
 0.5482021995
 0.5487887213
 0.5493744465
 0.5499593780
 0.5505435188
 0.5511268718
 0.5517094399
 0.5522912258
 0.5528722325
 0.5534524628
 0.5540319195
 0.5546106053
 0.5551885231
 0.5557656757
 0.5563420656
 0.5569176958
 0.5574925689
 0.5580666876
 0.5586400546
 0.5592126725
 0.5597845440
 0.5603556718
 0.5609260584
 0.5614957064
 0.5620646185
 0.5626327973
 0.5632002452
 0.5637669648
 0.5643329587
 0.5648982294
 0.5654627793
 0.5660266111
 0.5665897270
 0.5671521297
 0.5677138215
 0.5682748049
 0.5688350823
 0.5693946562
 0.5699535288
 0.5705117026
 0.5710691800
 0.5716259632
 0.5721820548
 0.5727374568
 0.5732921718
 0.5738462020
 0.5743995496
 0.5749522170
 0.5755042064
 0.5760555201
 0.5766061603
 0.5771561293
 0.5777054292
 0.5782540623
 0.5788020308
 0.5793493367
 0.5798959824
 0.5804419700
 0.5809873015
 0.5815319793
 0.5820760052
 0.5826193816
 0.5831621105
 0.5837041939
 0.5842456340
 0.5847864328
 0.5853265924
 0.5858661148
 0.5864050020
 0.5869432562
 0.5874808792
 0.5880178732
 0.5885542401
 0.5890899818
 0.5896251004
 0.5901595978
 0.5906934760
 0.5912267370
 0.5917593825
 0.5922914147
 0.5928228353
 0.5933536463
 0.5938838496
 0.5944134471
 0.5949424407
 0.5954708321
 0.5959986233
 0.5965258161
 0.5970524124
 0.5975784140
 0.5981038227
 0.5986286402
 0.5991528685
 0.5996765093
 0.6001995644
 0.6007220356
 0.6012439246
 0.6017652332
 0.6022859631
 0.6028061161
 0.6033256939
 0.6038446982
 0.6043631308
 0.6048809933
 0.6053982875
 0.6059150150
 0.6064311776
 0.6069467768
 0.6074618144
 0.6079762920
 0.6084902113
 0.6090035740
 0.6095163815
 0.6100286356
 0.6105403379
 0.6110514900
 0.6115620936
 0.6120721501
 0.6125816612
 0.6130906284
 0.6135990534
 0.6141069377
 0.6146142829
 0.6151210904
 0.6156273620
 0.6161330990
 0.6166383030
 0.6171429756
 0.6176471182
 0.6181507324
 0.6186538197
 0.6191563815
 0.6196584194
 0.6201599348
 0.6206609292
 0.6211614040
 0.6216613608
 0.6221608010
 0.6226597260
 0.6231581372
 0.6236560362
 0.6241534242
 0.6246503028
 0.6251466734
 0.6256425374
 0.6261378961
 0.6266327509
 0.6271271034
 0.6276209547
 0.6281143064
 0.6286071597
 0.6290995161
 0.6295913769
 0.6300827434
 0.6305736171
 0.6310639991
 0.6315538910
 0.6320432939
 0.6325322093
 0.6330206384
 0.6335085826
 0.6339960431
 0.6344830212
 0.6349695183
 0.6354555357
 0.6359410745
 0.6364261362
 0.6369107219
 0.6373948329
 0.6378784705
 0.6383616360
 0.6388443306
 0.6393265555
 0.6398083119
 0.6402896012
 0.6407704245
 0.6412507831
 0.6417306781
 0.6422101108
 0.6426890824
 0.6431675941
 0.6436456471
 0.6441232426
 0.6446003818
 0.6450770658
 0.6455532958
 0.6460290730
 0.6465043986
 0.6469792738
 0.6474536996
 0.6479276772
 0.6484012078
 0.6488742926
 0.6493469326
 0.6498191290
 0.6502908830
 0.6507621955
 0.6512330679
 0.6517035011
 0.6521734964
 0.6526430547
 0.6531121772
 0.6535808650
 0.6540491192
 0.6545169409
 0.6549843311
 0.6554512910
 0.6559178216
 0.6563839239
 0.6568495991
 0.6573148482
 0.6577796722
 0.6582440723
 0.6587080494
 0.6591716047
 0.6596347390
 0.6600974536
 0.6605597493
 0.6610216273
 0.6614830886
 0.6619441341
 0.6624047650
 0.6628649821
 0.6633247865
 0.6637841793
 0.6642431614
 0.6647017338
 0.6651598975
 0.6656176534
 0.6660750027
 0.6665319462
 0.6669884849
 0.6674446198
 0.6679003519
 0.6683556821
 0.6688106114
 0.6692651408
 0.6697192712
 0.6701730035
 0.6706263387
 0.6710792777
 0.6715318215
 0.6719839710
 0.6724357272
 0.6728870909
 0.6733380631
 0.6737886448
 0.6742388367
 0.6746886399
 0.6751380553
 0.6755870837
 0.6760357261
 0.6764839833
 0.6769318563
 0.6773793460
 0.6778264531
 0.6782731787
 0.6787195237
 0.6791654888
 0.6796110749
 0.6800562830
 0.6805011140
 0.6809455685
 0.6813896477
 0.6818333522
 0.6822766829
 0.6827196408
 0.6831622266
 0.6836044412
 0.6840462855
 0.6844877602
 0.6849288663
 0.6853696045
 0.6858099758
 0.6862499808
 0.6866896205
 0.6871288956
 0.6875678071
 0.6880063556
 0.6884445420
 0.6888823672
 0.6893198319
 0.6897569369
 0.6901936831
 0.6906300712
 0.6910661020
 0.6915017764
 0.6919370951
 0.6923720588
 0.6928066685
 0.6932409248
 0.6936748286
 0.6941083806
 0.6945415816
 0.6949744323
 0.6954069336
 0.6958390862
 0.6962708909
 0.6967023483
 0.6971334594
 0.6975642247
 0.6979946452
 0.6984247214
 0.6988544543
 0.6992838445
 0.6997128927
 0.7001415997
 0.7005699663
 0.7009979931
 0.7014256809
 0.7018530304
 0.7022800424
 0.7027067176
 0.7031330566
 0.7035590603
 0.7039847293
 0.7044100643
 0.7048350661
 0.7052597353
 0.7056840727
 0.7061080789
 0.7065317547
 0.7069551008
 0.7073781178
 0.7078008065
 0.7082231675
 0.7086452016
 0.7090669093
 0.7094882915
 0.7099093488
 0.7103300818
 0.7107504912
 0.7111705778
 0.7115903421
 0.7120097849
 0.7124289068
 0.7128477085
 0.7132661907
 0.7136843540
 0.7141021990
 0.7145197265
 0.7149369370
 0.7153538313
 0.7157704099
 0.7161866736
 0.7166026230
 0.7170182587
 0.7174335813
 0.7178485916
 0.7182632901
 0.7186776774
 0.7190917543
 0.7195055213
 0.7199189790
 0.7203321282
 0.7207449693
 0.7211575031
 0.7215697302
 0.7219816511
 0.7223932665
 0.7228045771
 0.7232155833
 0.7236262859
 0.7240366854
 0.7244467825
 0.7248565777
 0.7252660716
 0.7256752649
 0.7260841582
 0.7264927520
 0.7269010469
 0.7273090436
 0.7277167426
 0.7281241445
 0.7285312498
 0.7289380593
 0.7293445735
 0.7297507929
 0.7301567181
 0.7305623497
 0.7309676883
 0.7313727345
 0.7317774888
 0.7321819518
 0.7325861240
 0.7329900061
 0.7333935986
 0.7337969020
 0.7341999169
 0.7346026440
 0.7350050836
 0.7354072365
 0.7358091031
 0.7362106840
 0.7366119798
 0.7370129909
 0.7374137180
 0.7378141616
 0.7382143222
 0.7386142004
 0.7390137968
 0.7394131117
 0.7398121459
 0.7402108998
 0.7406093740
 0.7410075689
 0.7414054852
 0.7418031234
 0.7422004839
 0.7425975673
 0.7429943741
 0.7433909050
 0.7437871602
 0.7441831405
 0.7445788463
 0.7449742781
 0.7453694364
 0.7457643218
 0.7461589348
 0.7465532758
 0.7469473454
 0.7473411441
 0.7477346724
 0.7481279308
 0.7485209198
 0.7489136399
 0.7493060915
 0.7496982753
 0.7500901917
 0.7504818411
 0.7508732241
 0.7512643412
 0.7516551929
 0.7520457796
 0.7524361018
 0.7528261601
 0.7532159548
 0.7536054865
 0.7539947557
 0.7543837629
 0.7547725085
 0.7551609930
 0.7555492168
 0.7559371805
 0.7563248845
 0.7567123294
 0.7570995154
 0.7574864433
 0.7578731133
 0.7582595260
 0.7586456818
 0.7590315812
 0.7594172247
 0.7598026127
 0.7601877456
 0.7605726240
 0.7609572483
 0.7613416189
 0.7617257363
 0.7621096010
 0.7624932133
 0.7628765738
 0.7632596829
 0.7636425411
 0.7640251487
 0.7644075063
 0.7647896143
 0.7651714730
 0.7655530831
 0.7659344448
 0.7663155587
 0.7666964251
 0.7670770445
 0.7674574174
 0.7678375442
 0.7682174253
 0.7685970611
 0.7689764521
 0.7693555987
 0.7697345013
 0.7701131603
 0.7704915763
 0.7708697495
 0.7712476804
 0.7716253695
 0.7720028172
 0.7723800238
 0.7727569898
 0.7731337156
 0.7735102017
 0.7738864484
 0.7742624561
 0.7746382253
 0.7750137564
 0.7753890498
 0.7757641059
 0.7761389250
 0.7765135077
 0.7768878542
 0.7772619651
 0.7776358407
 0.7780094814
 0.7783828877
 0.7787560598
 0.7791289983
 0.7795017034
 0.7798741757
 0.7802464155
 0.7806184231
 0.7809901991
 0.7813617437
 0.7817330574
 0.7821041405
 0.7824749935
 0.7828456167
 0.7832160106
 0.7835861754
 0.7839561117
 0.7843258196
 0.7846952998
 0.7850645525
 0.7854335781
 0.7858023769
 0.7861709495
 0.7865392961
 0.7869074171
 0.7872753129
 0.7876429839
 0.7880104304
 0.7883776528
 0.7887446515
 0.7891114269
 0.7894779793
 0.7898443091
 0.7902104166
 0.7905763022
 0.7909419664
 0.7913074093
 0.7916726315
 0.7920376333
 0.7924024150
 0.7927669770
 0.7931313196
 0.7934954433
 0.7938593483
 0.7942230351
 0.7945865039
 0.7949497551
 0.7953127892
 0.7956756064
 0.7960382070
 0.7964005915
 0.7967627602
 0.7971247134
 0.7974864516
 0.7978479749
 0.7982092838
 0.7985703787
 0.7989312598
 0.7992919275
 0.7996523822
 0.8000126241
 0.8003726537
 0.8007324713
 0.8010920772
 0.8014514717
 0.8018106552
 0.8021696281
 0.8025283905
 0.8028869430
 0.8032452858
 0.8036034193
 0.8039613437
 0.8043190595
 0.8046765669
 0.8050338663
 0.8053909580
 0.8057478423
 0.8061045196
 0.8064609902
 0.8068172544
 0.8071733125
 0.8075291649
 0.8078848118
 0.8082402537
 0.8085954908
 0.8089505234
 0.8093053519
 0.8096599765
 0.8100143977
 0.8103686156
 0.8107226308
 0.8110764433
 0.8114300536
 0.8117834620
 0.8121366687
 0.8124896742
 0.8128424787
 0.8131950824
 0.8135474859
 0.8138996892
 0.8142516928
 0.8146034969
 0.8149551019
 0.8153065081
 0.8156577157
 0.8160087251
 0.8163595366
 0.8167101505
 0.8170605670
 0.8174107866
 0.8177608094
 0.8181106357
 0.8184602660
 0.8188097005
 0.8191589394
 0.8195079831
 0.8198568318
 0.8202054860
 0.8205539458
 0.8209022115
 0.8212502835
 0.8215981620
 0.8219458474
 0.8222933398
 0.8226406397
 0.8229877473
 0.8233346629
 0.8236813867
 0.8240279191
 0.8243742604
 0.8247204108
 0.8250663706
 0.8254121401
 0.8257577196
 0.8261031094
 0.8264483098
 0.8267933209
 0.8271381432
 0.8274827769
 0.8278272223
 0.8281714797
 0.8285155492
 0.8288594313
 0.8292031262
 0.8295466341
 0.8298899554
 0.8302330903
 0.8305760391
 0.8309188021
 0.8312613795
 0.8316037716
 0.8319459787
 0.8322880010
 0.8326298389
 0.8329714925
 0.8333129623
 0.8336542483
 0.8339953510
 0.8343362705
 0.8346770072
 0.8350175613
 0.8353579330
 0.8356981226
 0.8360381305
 0.8363779568
 0.8367176018
 0.8370570659
 0.8373963491
 0.8377354519
 0.8380743744
 0.8384131170
 0.8387516798
 0.8390900632
 0.8394282674
 0.8397662926
 0.8401041392
 0.8404418073
 0.8407792973
 0.8411166093
 0.8414537437
 0.8417907007
 0.8421274805
 0.8424640834
 0.8428005096
 0.8431367595
 0.8434728332
 0.8438087310
 0.8441444531
 0.8444799999
 0.8448153715
 0.8451505682
 0.8454855902
 0.8458204379
 0.8461551113
 0.8464896109
 0.8468239368
 0.8471580892
 0.8474920685
 0.8478258748
 0.8481595084
 0.8484929696
 0.8488262585
 0.8491593755
 0.8494923207
 0.8498250945
 0.8501576970
 0.8504901285
 0.8508223892
 0.8511544794
 0.8514863992
 0.8518181490
 0.8521497290
 0.8524811394
 0.8528123804
 0.8531434524
 0.8534743554
 0.8538050898
 0.8541356557
 0.8544660535
 0.8547962833
 0.8551263454
 0.8554562400
 0.8557859673
 0.8561155276
 0.8564449211
 0.8567741480
 0.8571032086
 0.8574321030
 0.8577608316
 0.8580893945
 0.8584177919
 0.8587460242
 0.8590740915
 0.8594019940
 0.8597297319
 0.8600573056
 0.8603847152
 0.8607119609
 0.8610390429
 0.8613659615
 0.8616927170
 0.8620193094
 0.8623457391
 0.8626720063
 0.8629981111
 0.8633240538
 0.8636498347
 0.8639754539
 0.8643009116
 0.8646262081
 0.8649513436
 0.8652763183
 0.8656011325
 0.8659257862
 0.8662502798
 0.8665746135
 0.8668987874
 0.8672228019
 0.8675466570
 0.8678703531
 0.8681938903
 0.8685172688
 0.8688404888
 0.8691635507
 0.8694864545
 0.8698092005
 0.8701317888
 0.8704542198
 0.8707764936
 0.8710986104
 0.8714205704
 0.8717423738
 0.8720640209
 0.8723855118
 0.8727068468
 0.8730280260
 0.8733490497
 0.8736699180
 0.8739906312
 0.8743111895
 0.8746315930
 0.8749518420
 0.8752719367
 0.8755918772
 0.8759116639
 0.8762312968
 0.8765507762
 0.8768701023
 0.8771892753
 0.8775082953
 0.8778271626
 0.8781458774
 0.8784644399
 0.8787828502
 0.8791011086
 0.8794192153
 0.8797371704
 0.8800549742
 0.8803726268
 0.8806901285
 0.8810074795
 0.8813246798
 0.8816417298
 0.8819586296
 0.8822753795
 0.8825919795
 0.8829084299
 0.8832247310
 0.8835408828
 0.8838568856
 0.8841727395
 0.8844884448
 0.8848040017
 0.8851194103
 0.8854346708
 0.8857497834
 0.8860647483
 0.8863795658
 0.8866942358
 0.8870087588
 0.8873231348
 0.8876373640
 0.8879514466
 0.8882653829
 0.8885791729
 0.8888928170
 0.8892063151
 0.8895196677
 0.8898328747
 0.8901459365
 0.8904588531
 0.8907716249
 0.8910842518
 0.8913967343
 0.8917090723
 0.8920212662
 0.8923333160
 0.8926452220
 0.8929569843
 0.8932686032
 0.8935800787
 0.8938914112
 0.8942026007
 0.8945136474
 0.8948245515
 0.8951353133
 0.8954459328
 0.8957564102
 0.8960667458
 0.8963769396
 0.8966869920
 0.8969969030
 0.8973066728
 0.8976163016
 0.8979257895
 0.8982351368
 0.8985443437
 0.8988534102
 0.8991623366
 0.8994711230
 0.8997797696
 0.9000882766
 0.9003966442
 0.9007048724
 0.9010129616
 0.9013209118
 0.9016287233
 0.9019363961
 0.9022439306
 0.9025513267
 0.9028585848
 0.9031657050
 0.9034726874
 0.9037795322
 0.9040862396
 0.9043928097
 0.9046992428
 0.9050055389
 0.9053116983
 0.9056177210
 0.9059236074
 0.9062293575
 0.9065349715
 0.9068404496
 0.9071457919
 0.9074509986
 0.9077560699
 0.9080610059
 0.9083658067
 0.9086704727
 0.9089750038
 0.9092794003
 0.9095836623
 0.9098877901
 0.9101917837
 0.9104956433
 0.9107993691
 0.9111029612
 0.9114064198
 0.9117097451
 0.9120129372
 0.9123159962
 0.9126189224
 0.9129217159
 0.9132243768
 0.9135269054
 0.9138293017
 0.9141315659
 0.9144336982
 0.9147356987
 0.9150375676
 0.9153393050
 0.9156409112
 0.9159423862
 0.9162437302
 0.9165449433
 0.9168460258
 0.9171469778
 0.9174477993
 0.9177484907
 0.9180490519
 0.9183494833
 0.9186497849
 0.9189499569
 0.9192499994
 0.9195499126
 0.9198496966
 0.9201493516
 0.9204488778
 0.9207482753
 0.9210475442
 0.9213466847
 0.9216456969
 0.9219445810
 0.9222433372
 0.9225419656
 0.9228404663
 0.9231388394
 0.9234370852
 0.9237352038
 0.9240331953
 0.9243310599
 0.9246287977
 0.9249264089
 0.9252238936
 0.9255212519
 0.9258184841
 0.9261155902
 0.9264125703
 0.9267094248
 0.9270061536
 0.9273027569
 0.9275992349
 0.9278955877
 0.9281918155
 0.9284879184
 0.9287838965
 0.9290797500
 0.9293754791
 0.9296710838
 0.9299665643
 0.9302619208
 0.9305571534
 0.9308522622
 0.9311472474
 0.9314421091
 0.9317368474
 0.9320314626
 0.9323259547
 0.9326203239
 0.9329145703
 0.9332086940
 0.9335026953
 0.9337965741
 0.9340903308
 0.9343839653
 0.9346774779
 0.9349708687
 0.9352641378
 0.9355572853
 0.9358503115
 0.9361432164
 0.9364360001
 0.9367286629
 0.9370212048
 0.9373136259
 0.9376059265
 0.9378981066
 0.9381901664
 0.9384821060
 0.9387739255
 0.9390656252
 0.9393572050
 0.9396486652
 0.9399400059
 0.9402312271
 0.9405223292
 0.9408133121
 0.9411041760
 0.9413949211
 0.9416855474
 0.9419760551
 0.9422664444
 0.9425567154
 0.9428468681
 0.9431369028
 0.9434268195
 0.9437166185
 0.9440062997
 0.9442958634
 0.9445853097
 0.9448746387
 0.9451638505
 0.9454529453
 0.9457419231
 0.9460307842
 0.9463195287
 0.9466081566
 0.9468966682
 0.9471850634
 0.9474733426
 0.9477615057
 0.9480495529
 0.9483374844
 0.9486253002
 0.9489130005
 0.9492005855
 0.9494880552
 0.9497754097
 0.9500626493
 0.9503497740
 0.9506367839
 0.9509236792
 0.9512104599
 0.9514971263
 0.9517836784
 0.9520701164
 0.9523564404
 0.9526426505
 0.9529287468
 0.9532147295
 0.9535005986
 0.9537863544
 0.9540719969
 0.9543575262
 0.9546429425
 0.9549282458
 0.9552134364
 0.9554985143
 0.9557834797
 0.9560683326
 0.9563530732
 0.9566377016
 0.9569222180
 0.9572066224
 0.9574909150
 0.9577750958
 0.9580591651
 0.9583431229
 0.9586269694
